!!!COM: de Machuat, Guillaume
!!!OTL: Helas! pour quoy
!! Guillaume de Machaut, "Helas! pour quoy" No. 2 from Volume 5 of
!! "Oeuvres Comple\tes" E/ditions de l'Oiseau-lyre (Monaco) -1977; pp.1-2
**kern	**kern
*M6/8	*M6/8
=1	=1
4.C	4.c
4.D	4.A
=2	=2
2.C	8c
.	8B
.	8c
.	8d
.	4c
=3	=3
2.E	8B
.	4A
.	8G
.	4A
=4	=4
4.F	4.F
4.E	4.G
=5	=5
2.F	2.F
=6	=6
4.G	8e
.	8d
.	8e
[4.F	4r
.	8f
=7	=7
4.F]	4d
.	8c
4.E	8r
.	8B
.	8c#
=8	=8
4r	4d
8D	8r
4.C	4.e
=9	=9
4.D	8d
.	8c
.	8d
4.G	4e
.	8d
=10	=10
4r	4A
8A	8r
4F	4c
8E	8B
=11	=11
4.D	4d
.	8e
4.C	4.c
=12	=12
2.F	2.F
=13	=13
2.E	4G
.	8F
.	8G
.	8F
.	8G
=14	=14
4.D	4.A
4.G	4.B-
=15	=15
4F	8A
.	4c
8E	.
4.D	8B
.	4d
=16	=16
4r	4c
8F	8r
4.F	4.A
=17	=17
2.G	8B-
.	8A
.	8B-
.	4A
.	8G
=18	=18
2.D;	2.A;
=19	=19
4.F	4.c
4.G	4.B
=20	=20
4.A	8c
.	8B
.	8c
4.G	8d
.	8r
.	8e
=21	=21
2.A	8c
.	4B
.	8c
.	4A
=22	=22
4r	4.G
8G	.
4.A	4r
.	8e
=23	=23
4.B-	4.d
4.A	4.c
=24	=24
2.G	4B
.	8A
.	8B
.	8A
.	8B
=25	=25
2.F	2.c
=26	=26
2.G	4.g
.	8g
.	4f#
=27	=27
2.A	8r
.	8f#
.	8e
.	8r
.	8e
.	8d
=28	=28
2.B-	4d
.	8c
.	8d
.	8c
.	8d
=29	=29
4r	4.e
8A	.
4.G	4r
.	8g
=30	=30
2.A	4f#
.	8g
.	4f#
.	8e
=31	=31
4.G	4g
.	8d
4.A	8r
.	8e
.	8f#
=32	=32
4.G	8g
.	8f
.	8e
4.F	4d
.	8c
=33	=33
4r	4.B
8G	.
4F	4r
8E	8c
=34	=34
2.D	4d
.	8A
.	4A
.	8G
=35	=35
2.C	2.c
==	==
*-	*-
